public/skills/prisma.svg

<?xml version="1.0" encoding="UTF-8"?>
<!-- Uploaded to: SVG Repo, www.svgrepo.com, Generator: SVG Repo Mixer Tools -->
<svg width="800px" height="800px" viewBox="-27 0 310 310" version="1.1" xmlns="http://www.w3.org/2000/svg" xmlns:xlink="http://www.w3.org/1999/xlink" preserveAspectRatio="xMidYMid">
    <g>
        <path d="M254.312882,235.518775 L148.000961,9.74987264 C145.309805,4.08935083 139.731924,0.359884549 133.472618,0.0359753113 C127.198908,-0.384374336 121.212054,2.71925839 117.939655,8.08838662 L2.63252565,194.847143 C-0.947129465,200.604248 -0.871814894,207.912774 2.8257217,213.594888 L59.2003287,300.896318 C63.5805009,307.626626 71.8662281,310.673635 79.5631922,308.384597 L243.161606,259.992851 C248.145475,258.535702 252.252801,254.989363 254.421072,250.271225 C256.559881,245.57581 256.523135,240.176915 254.32061,235.511047 L254.312882,235.518775 Z M230.511129,245.201761 L91.6881763,286.252058 C87.4533189,287.511696 83.388474,283.840971 84.269448,279.567474 L133.866738,42.0831633 C134.794079,37.6396542 140.929985,36.9364206 142.869673,41.0476325 L234.684164,236.021085 C235.505704,237.779423 235.515611,239.809427 234.711272,241.575701 C233.906934,243.341974 232.369115,244.667163 230.503401,245.201761 L230.511129,245.201761 Z" fill="#ffffff" fill-rule="nonzero">

</path>
    </g>
</svg>

<svg width="800" height="800" viewBox="-27 0 310 310" xmlns="http://www.w3.org/2000/svg" preserveAspectRatio="xMidYMid"><path d="M254.313 235.519 148 9.749A17.063 17.063 0 0 0 133.473.037a16.87 16.87 0 0 0-15.533 8.052L2.633 194.848a17.465 17.465 0 0 0 .193 18.747L59.2 300.896a18.13 18.13 0 0 0 20.363 7.489l163.599-48.392a17.929 17.929 0 0 0 11.26-9.722 17.542 17.542 0 0 0-.101-14.76l-.008.008Zm-23.802 9.683-138.823 41.05c-4.235 1.26-8.3-2.411-7.419-6.685l49.598-237.484c.927-4.443 7.063-5.147 9.003-1.035l91.814 194.973a6.63 6.63 0 0 1-4.18 9.18h.007Z" fill="#fff"/></svg>
